azure-patterns/svg-calculator.svg

<svg xmlns="http://www.w3.org/2000/svg" viewBox="0 0 27.5 40"><path d="M0 0h27.5v40H0zm25 37.5v-35H2.5v35zM22.5 5v7.5H5V5zm-15 12.5V20H5v-2.5zm0 7.5v2.5H5V25zm0 7.5V35H5v-2.5zM20 10V7.5H7.5V10zm-7.5 10v-2.5H15V20zm0 7.5V25H15v2.5zm0 7.5v-2.5H15V35zM20 20v-2.5h2.5V20zm0 7.5V25h2.5v2.5zm0 7.5v-2.5h2.5V35z" fill="#525252"/></svg>

<svg xmlns="http://www.w3.org/2000/svg" viewBox="0 0 27.5 40">
                                
                            
    <path d="M0,0H27.5V40H0ZM25,37.5V2.5H2.5v35ZM22.5,5v7.5H5V5ZM7.5,17.5V20H5V17.5Zm0,7.5v2.5H5V25Zm0,7.5V35H5V32.5ZM20,10V7.5H7.5V10ZM12.5,20V17.5H15V20Zm0,7.5V25H15v2.5Zm0,7.5V32.5H15V35ZM20,20V17.5h2.5V20Zm0,7.5V25h2.5v2.5ZM20,35V32.5h2.5V35Z" fill="#525252"></path>
</svg>
